X:1
T: The Irrepressible Tiamot
C:Gordy Euler
R:Jig
Q: 180
K:A
M:6/8
L:1/16
|:G2E2E2 A2E2E2|B2E2E2 B2c2d2|c2A2A2 B2A2A2|F2A2A2 G2A2F2|
G2E2E2 A2E2E2|B2E2E2 B2c2d2|e2c2e2 d2B2B2|c2A2c2 B6:|
|:B2c2d2 e2c2A2|F2A2A2 G2A2B2|B2c2d2 e2c2B2|c2A2c2 B6|
B2c2d2 e2c2A2|A2c2e2 a2e2c2|d2B2B2 c2A2A2|B2A2G2 A6:|
